!!!!SEGMENT: pl-wtm--1481-sp-7693--001-001_szymanowski-karol--szesc-piesni-op-20-no-1-na-ksiezycu-czarnym.krn
!!!cenid: 19xx:58
!!!COM: Szymanowski, Karol
!!!COM-rismID: pe30106403
!!!CDT: 1882-1937
!!!CNT: Polish
!!!GTL: Sześć pieśni Op. 20
!!!OTL: No. 1. Na księżycu czarnym
!!!OMV: 001
!!!PDT: 1925
!!!AGN: Secular; Song
!!!YEC: Copyright 2022 Narodowy Instytut Fryderyka Chopina (https://polishscores.org)
!!!YEM: License CC-BY-4.0 (https://creativecommons.org/licenses/by/4.0)
!!!SMS-siglum: PL-Wtm
!!!SMS-shelfmark: 1481 śp 7693
!!!SMS-variant:
!!!SMS-altvar:
!!!SMS-shelfwork: 001-001 G
!!!NIFC-rismSourceID: 1001210639
!!!NIFC-rismChildID: 1001210639
!!!NIFC-islandoraID: pl-wtm:73423
!!!URL-pdf-islandora: https://repozytorium.nifc.pl/islandora/object/pl-wtm%3A73423/datastream/PDF/view
!!!URL-scan: https://polish.musicsources.pl/pl/lokalizacje/galeria/druki-muzyczne/18683/3 @EN{Scan on Polish Music Sources Website} @PL{Skany w portalu Dziedzictwo Muzyki Polskiej w otwartym dostępie}
!!!IIIF:
!!!ONB-nifc: UWAGA: str. 3-4.
!!!AIN: 2 piano 1 vox
!!!key:
**kern	**kern	**dynam	**kern	**text	**text	**text	**dynam
*part3	*part2	*part2	*part1	*part1	*part1	*part1	*part1
*staff3	*staff2	*	*staff1	*staff1	*staff1	*staff1	*
*Ipiano	*Ipiano	*	*Ivox	*	*	*	*
*I"Piano.	*I"Piano.	*	*I"Canto.	*	*	*	*
*I'P-no	*I'P-no	*	*I'C.	*	*	*	*
*clefF4	*clefG2	*	*clefG2	*	*	*	*
*k[]	*k[]	*	*k[]	*	*	*	*
*F#:	*F#:	*	*F#:	*	*	*	*
*M4/4	*M4/4	*	*M4/4	*	*	*	*
!	!	!	!LO:TX:B:a:t=Largo mesto.	!	!	!	!
12r	12r	.	2r	.	.	.	.
12D-X~\L	12d-X~/L	pp	.	.	.	.	.
!	!LO:TX:b:i:t=(dolce marc.)	!	!	!	!	!	!
[12D-~\J	[12d-~/J	.	.	.	.	.	.
12D-~\L]	12d-/L]	.	.	.	.	.	.
12D-~\	12d-~/	.	.	.	.	.	.
[12D-~\J	&[12d-~/J	.	.	.	.	.	.
=1	=1	=1	=1	=1	=1	=1	=1
*^	*^	*	*	*	*	*	*
!	!	!LO:TX:t=P:problem=mixed beam	!	!	!	!	!	!	!
12D-/L]	(4FFF\ 4FF	4.d-X~/ 4.b-X (4.dd-X	12d-</L&]	.	1r	.	.	.	.
!	!	!LO:TX:i:a:t=(simile)	!	!	!	!	!	!	!
12D-X/	.	.	12d-\	p <	.	.	.	.	.
[12D-/J	.	.	[12d-\J	.	.	.	.	.	.
12D-/L]	4GGG-X\ 4GG-X	.	12d-\L]	.	.	.	.	.	.
12D-/	.	.	12d-\	[	.	.	.	.	.
.	.	8c/ 8a-X 8cc	.	.	.	.	.	.	.
!	!	!LO:TX:t=P:problem=mixed beam	!	!	!	!	!	!	!
[12D-/J	.	.	[12d-</J	.	.	.	.	.	.
!	!	!LO:TX:t=P:problem=mixed beam	!	!	!	!	!	!	!
12D-/L]	4BBB-X\ 4BB-X	4B-X/ 4g-X 4b-	12d-</L]	.	.	.	.	.	.
12D-/	.	.	12d-\	>	.	.	.	.	.
[12D-/J	.	.	[12d-\J	.	.	.	.	.	.
12D-/L]	4DD-X\) 4D-	4A-X/) 4f-X 4a-X	12d-\L]	.	.	.	.	.	.
12D-/	.	.	12d-\	.	.	.	.	.	.
[<12D-/J	.	.	[12d-\J	]	.	.	.	.	.
*v	*v	*	*	*	*	*	*	*	*
*	*v	*v	*	*	*	*	*	*
!!LO:LB:g=original
=2	=2	=2	=2	=2	=2	=2	=2
*M2/4	*M2/4	*	*M2/4	*	*	*	*
*^	*^	*	*	*	*	*	*
*	*	*	*	*	*	*	*ij	*	*
!	!	!LO:TX:b:t=ten.	!	!	!LO:TX:i:a:t=(molto espr.)	!	!	!	!
12D-/L]	2GG~\ 2E-X 2G	2e-X~/ 2b-X 2dd-X	12d-\L]	.	8r	.	.	.	.
12D-X/	.	.	12d-X\	p	.	.	.	.	.
.	.	.	.	.	4cc#X\	Na	Dans	Auf	.
[12D-/J	.	.	[12d-\J	>	.	.	.	.	.
12D-/L]	.	.	12d-\L]	.	.	.	.	.	.
12C#X/	.	.	12c#X\	]	.	.	.	.	.
!	!	!	!	!	!	!	!	!	!LO:DY:a
.	.	.	.	.	8bn\	księ-	la	dem	<
[<12C#/J	.	.	[12c#\J	.	.	.	.	.	.
*v	*v	*	*	*	*	*	*	*	*
*	*v	*v	*	*	*	*	*	*
=3	=3	=3	=3	=3	=3	=3	=3
*M4/4	*M4/4	*	*M4/4	*	*	*	*
*^	*^	*	*	*	*	*	*
12C#/L]	(4EEEn\ 4EEn	(4.c#X~/ 4.an 4.cc#X	12c#</L]	.	4an/	-ży-	lu-	schwar-	.
12C#X/	.	.	12c#\	mp	.	.	.	.	.
[12C#/J	.	.	[12c#\J	<	.	.	.	.	.
12C#/L]	4EEE#X\ 4EE#X	.	12c#\L]	.	4g#X/	-cu	-ne	-zen	[
12C#/	.	.	12c#\	.	.	.	.	.	.
.	.	8Bn/ 8g#X 8bn	.	.	.	.	.	.	.
[12C#/J	.	.	[12c#X</J	.	.	.	.	.	.
!	!	!	!	!	!	!	!	!	!LO:DY:a
12C#/L]	4FFF#X\ 4FF#X	4A/ 4f#X 4a	12c#</L]	.	4c#X/	czar-	som-	Mon-	>
12C#/	.	.	12c#\	>	.	.	.	.	.
[12C#/J	.	.	[12c#\J	.	.	.	.	.	.
12C#/L]	4AAA\) 4AA	4Gn/) 4en 4gn	12c#\L]	.	4e/	-nym	-bre et	-de	]]
(12C#/	.	.	(12c#\	.	.	.	.	.	.
12Cn/J)	.	.	12cn\J)	.	.	.	.	.	.
*v	*v	*	*	*	*	*	*	*	*
*	*v	*v	*	*	*	*	*	*
!!LO:PB:g=original
=4	=4	=4	=4	=4	=4	=4	=4
*M2/4	*M2/4	*	*M2/4	*	*	*	*
*^	*^	*	*	*	*	*	*
!LO:TX:a:t=ten.	!	!	!	!	!	!	!	!	!LO:DY:a
12BBn/L	2DD#X~\ 2AAn 2D#X	2F#X~/ 2An 2f#X	12Bn\L	.	4f#X/	wi-	froi-	häng	>
12BB/	.	.	12B\	>	.	.	.	.	.
[12BB/J	.	.	[12B\J	.	.	.	.	.	.
12BB/L]	.	.	12B\L]	.	4Bn/	-szę	-de	ich	]
12BB/	.	.	12B\	]	.	.	.	.	.
12BB/J	.	.	12B\J	.	.	.	.	.	.
*v	*v	*	*	*	*	*	*	*	*
*	*v	*v	*	*	*	*	*	*
=5	=5	=5	=5	=5	=5	=5	=5
*M4/4	*M4/4	*	*M4/4	*	*	*	*
*^	*^	*	*	*	*	*	*
!	!	!LO:TX:a:t=(poco avviv.)	!	!	!	!	!	!	!
12r	(4DDD#X\ 4DD#X	8B/L (8b	12f#X\L	p	4r	.	.	.	.
12F#X/L	.	.	12f#\	.	.	.	.	.	.
.	.	[<8cn~/J [8ccn	.	<	.	.	.	.	.
[12F#/J	.	.	[12f#\J	.	.	.	.	.	.
*	*	*	*	*	*	*	*	*	*^
*	*	*	*	*	*	*	*	*	*^	*
!	!	!	!	!	!	!	!	!	!LO:DY:rj	!LO:HP:a	!LO:HP:a
12F#/L]	4AAA\) 4AA	8c/L] 8cc]	12f#\L]	.	8f#X/	pa-	ou	in	p	<	<
*	*	*	*	*	*	*	*	*	*v	*v	*
(12F#/	.	.	12f#\	.	.	.	.	.	.	.
.	.	8c#X~/J 8cc#X)	.	.	8fn/	-trząc	les	ver-	.	.
12Fn/J)	.	.	12fn\J	.	.	.	.	.	.	.
12r	(4GGG#X\ 4GG#X	[<4c#/ ([4cc#	12e\L	.	(8e/	w gwiazd	atoi-	-lö-	.	.
12G#X/L	.	.	12g#X\	.	.	.	.	.	.	.
.	.	.	.	.	4cc#X\)	gas-	.	-schen-	.	.
[12G#/J	.	.	[12g#\J	[	.	.	.	.	.	.
12G#/L]	4BBB\) 4BB	8c#/L] 8cc#]	12g#\L]	<	.	.	.	.	.	.
(12G#/	.	.	(12g#\	.	.	.	.	.	.	.
.	.	8dn~/J 8ddn)	.	.	8ddn\	-ną-	-les	-der	[[	.
*	*	*	*	*	*	*	*	*	*v	*v
(12Gn/J)	.	.	(12gn\J)	.	.	.	.	.	.
=6	=6	=6	=6	=6	=6	=6	=6	=6	=6
*	*	*	*	*	*^	*	*	*	*
!	!	!	!	!	!	!	!	!	!	!LO:DY:a
!	!	!	!	!	!	!	!	!	!	!LO:DY:a
*	*	*	*	*	*	*cue	*	*	*	*
12F##X/L)	2AAA#X\ 2DD#X 2AA#X	(2d#X~/ 2a#X 2dd#X	12f##X\L)	mf	4.dd#X\	4dd#/	.	meu-	Ster-	mf >
12F#X/	.	.	12f#X\	>	.	.	.	.	.	.
[12F#/J	.	.	[12f#\J	.	.	.	.	.	.	.
12F#/L]	.	.	12f#\L]	.	.	8dd#\	.	-rent	.	.
12F#/	.	.	12f#\	.	.	.	.	.	.	.
.	.	.	.	.	8ddn\	8ryy	-cych	en	-ne	.
[12F#/J	.	.	[12f#\J	]	.	.	.	.	.	.
12F#/L]	2AAA#~\ 2CC#X 2FF#X 2C#X	2en~/) 2cc#X 2een	12f#\L]	p >	4cc#X\	4ryy	ci-	si	Schwei-	.
12F#/	.	.	12f#\	.	.	.	.	.	.	.
[12F#/J	.	.	[12f#\J	.	.	.	.	.	.	.
!	!	!LO:TX:i:a:t=riten.	!	!	!	!	!	!	!	!LO:DY:a
12F#/L]	.	.	12f#\L]	]	4f#X/	8f#\	-szę.	len-	-gen	] pp
12F#/	.	.	12f#\	pp	.	.	.	.	.	.
!	!	!	!	!	!	!LO:TX:i:a:t=riten.	!	!	!	!
.	.	.	.	.	.	8f#\	.	-ce	.	.
*	*	*	*	*	*	*Xcue	*	*	*	*
12F#/J	.	.	12f#\J	.	.	.	.	.	.	.
*	*	*	*	*	*v	*v	*	*	*	*
!!LO:LB:g=original
=7	=7	=7	=7	=7	=7	=7	=7	=7	=7
!	!	!LO:TX:i:b:t=(dolciss.)	!	!	!	!	!	!	!
12r	2AAAn\ 2DD#X 2FF#X 2BBn	4.dd#X\ 4.ff#X 4.bbn (4.fff#X	2ryy	pp <	4r	.	.	.	.
*clefG2	*	*	*	*	*	*	*	*	*
12B/L 12b	.	.	.	.	.	.	.	.	.
[12B/J [12b	.	.	.	.	.	.	.	.	.
12B/L] 12b]	.	.	.	.	8r	.	.	.	.
12B/ 12b	.	.	.	[	.	.	.	.	.
*	*	*	*	*	*cue	*	*	*	*
.	.	8een\ 8ccc#X 8eeen	.	.	8ee\	.	Dans	.	.
(12B/J &)12b	.	.	.	.	.	.	.	.	.
*clefF4	*	*	*	*	*Xcue	*	*	*	*
!	!	!	!	!	!	!	!	!	!LO:DY:a
(4AAA/)) 4AA	2ryy	4dd#/ 4ff# 4bb 4ddd#X	12B\L 12b&)	<	4.dd#X^\	W mro-	l'om-	In	<
.	.	.	12B\ 12b	.	.	.	.	.	.
.	.	.	[12B\J [12b	.	.	.	.	.	.
!LO:TX:i:a:t=poco cresc.	!	!LO:TX:t=P:problem=# w nawiasie	!	!	!	!	!	!	!
8GGG#X/L 8GG#X	.	4cc#X/ 4ff# 4ccc#X	12B\L] 12b]	.	.	.	.	.	.
.	.	.	12B\ 12b	.	.	.	.	.	.
16AAA/L 16AA	.	.	.	.	8cc#X\	-ku	-bre	dem	.
.	.	.	12B\J 12b	.	.	.	.	.	.
16GGG#/JJ) 16GG#	.	.	.	.	.	.	.	.	.
=8	=8	=8	=8	=8	=8	=8	=8	=8	=8
&&(<4GGGn\ 4GGn	2ryy	4b/ [4cc#X [4ee 4bb	12r	[	4b\	dum-	gra-	stol-	.
.	.	.	12D#X</L 12d#X<	.	.	.	.	.	.
.	.	.	[12D#</J [12d#<	.	.	.	.	.	.
!	!	!LO:TX:t=P:problem=mixed beam	!	!	!	!	!	!	!
8FFF#X\L 8FF#X	.	4a#X/ 4cc#] 4ee] 4aa#X	12D#</L] 12d#<]	.	4a#X/	-nym	-ve et	-zen,	[
.	.	.	12D#X\ 12d#X	.	.	.	.	.	.
16GGG#X\L 16GG#X	.	.	.	.	.	.	.	.	.
.	.	.	12D#\J 12d#	.	.	.	.	.	.
16FFF#\JJ 16FF#	.	.	.	.	.	.	.	.	.
!	!	!	!LO:TX:t=P:problem=# w nawiasie	!	!	!	!	!	!LO:DY:a
[<4EEE#X\ [<4EE#X	12ryy	4a#/ 4aa#	12cc#X\L	.	4a#/	i	my-	stil-	>
.	12C#X/L 12c#X	.	12cc#\	.	.	.	.	.	.
.	[>12C#/J [>12c#	.	[12cc#\J	.	.	.	.	.	.
8EEE#\L] 8EE#]	8C#/] 8c#]	4an/ 4aan)	12cc#\L]	.	4an/	bez-	-ste-	-len	]
.	.	.	12c#X\ 12cc#	.	.	.	.	.	.
16CC#X\L 16Cn	8ryy	.	.	.	.	.	.	.	.
.	.	.	12c#\J 12cc#	.	.	.	.	.	.
16CCn\JJ&&) 16Cn	.	.	.	.	.	.	.	.	.
!!LO:LB:g=original
=9	=9	=9	=9	=9	=9	=9	=9	=9	=9
*	*	*	*	*	*^	*	*	*	*
!	!	!LO:TX:i:b:t=(dolce)	!	!	!	!	!	!	!	!LO:DY:a
2BBB\ 2BB	12rA	(4.ee#X~\ 4.gg#X 4.ccc#X 4.ggg#X	2ryy	p	4g#X/	4ryy	-głoś-	-rieu-	Dun-	>
*clefG2	*	*	*	*	*	*	*	*	*	*
.	12c#X/L 12cc#X	.	.	<	.	.	.	.	.	.
.	[12c#/J [12cc#	.	.	.	.	.	.	.	.	.
*	*	*	*	*	*	*cue	*	*	*	*
.	12c#/L] 12cc#]	.	.	.	4c#X/	8c#\	-nym,	-se,	-kel,	]
.	12c#/ 12cc#	.	.	.	.	.	.	.	.	.
.	.	8ff#X\ 8ddd#X 8fff#X	.	.	.	8c#\	.	je	.	.
.	12c#/J 12cc#	.	.	[	.	.	.	.	.	.
*clefF4	*	*	*	*	*	*Xcue	*	*	*	*
!LO:TX:i:a:t=poco crescendo	!	!	!	!	!LO:TX:t=P:problem="p" w nawiasie	!	!	!	!	!LO:DY:a
(<4BBB/ (4BB	2ryy	4ee#/ 4gg# 4ccc# 4eee#X	12c#X\L 12cc#X	.	4.ee#X\	2ryy	ze	cher-	mit	p
.	.	.	12c#\ 12cc#	.	.	.	.	.	.	<
.	.	.	[12c#\J [12cc#	.	.	.	.	.	.	.
8AAA#X/L 8AA#X)	.	4dd#X/ 4ee# 4gg# 4ddd#X	12c#\L] 12cc#]	.	.	.	.	.	.	.
.	.	.	12c#\ 12cc#	.	.	.	.	.	.	.
16BBB/L 16BB	.	.	.	.	8dd#X\	.	strzas-	-che	zer-	.
.	.	.	12c#\J 12cc#	.	.	.	.	.	.	.
16AAA#/JJ) 16AA#	.	.	.	.	.	.	.	.	.	.
*v	*v	*	*	*	*v	*v	*	*	*	*
=10	=10	=10	=10	=10	=10	=10	=10	=10
[4AAAn\ [4AAn	4cc#X~/ 4dd#X 4ff#X 4ccc#X	12r	mp	4cc#X\	-ka-	sa	-chell-	.
.	.	12E#X\L 12e#X	.	.	.	.	.	.
.	.	[12E#\J [12e#	.	.	.	.	.	.
8AAA\L] 8AA]	4b#X/ 4dd# 4ff# 4bb#X	12E#\L] 12e#]	.	4b#X\	-ną	dou-	-ter	[
.	.	12E#X\ 12e#X	.	.	.	.	.	.
16AAA#X\L 16AA#X	.	.	.	.	.	.	.	.
.	.	12E#\J 12e#	.	.	.	.	.	.
16GGG#X\JJ 16GG#X	.	.	.	.	.	.	.	.
!	!	!	!	!	!	!	!	!LO:DY:a
[4FFF##X\ [4FF##X	4bn~/ 4bbn	12dd#X\L	.	4bn\	har-	-ce	Trau-	>
.	.	12dd#\	.	.	.	.	.	.
.	.	[12dd#\J	.	.	.	.	.	.
8FFF##\L] 8FF##]	4a#X/) 4aa#X	12dd#\L]	.	4a#X/	-fą	i-	-mes-	]]
.	.	12F#X\ 12f#X	.	.	.	.	.	.
16GGG#\L 16GG#	.	.	.	.	.	.	.	.
.	.	12F#\J 12f#	.	.	.	.	.	.
16FFF##\JJ 16FF##	.	.	.	.	.	.	.	.
!!LO:PB:g=original
=11	=11	=11	=11	=11	=11	=11	=11	=11
*	*	*	*	*^	*	*	*	*
!	!LO:TX:a:t=(pesante, non accel.)	!	!	!	!	!	!	!	!
*	*	*	*	*cue	*	*	*	*	*
12GGG-X/L 12GG-X	(4.ee-X^/	12cn\L 12e-X 12a-X	p	4e-X\	4.e-/	snów,	-ma-	-har-	.
(12Cn~/ 12E-X 12A-X	.	12c\ 12e- 12a-	.	.	.	.	.	.	.
12C~/J 12E- 12A-	.	12c\J 12e- 12a-	.	.	.	.	.	.	.
12C~\L 12E- 12A-	.	12c\L 12e- 12a-	.	8e-\	.	.	-ge,	-fe	.
*	*	*	*	*Xcue	*	*	*	*	*
12C~\ 12E- 12A-	.	12c\ 12e- 12a-	.	.	.	.	.	.	.
.	8dd-X/	.	.	8r	8ryy	.	.	.	.
12C~\J) 12E- 12A-	.	12c\J 12e- 12b-X	.	.	.	.	.	.	.
!	!	!	!	!	!	!	!	!	!LO:DY:a
([4GGG-/ [4GG-	4ccn/	12c\L 12e- 12a-	.	(4.ee-X^\	2ryy	pły-	et	glei-	mp
.	.	12c\ 12e- 12a-	.	.	.	.	.	.	.
.	.	12c\J 12e- 12a-	.	.	.	.	.	.	.
8GGG-/L] 8GG-]	4b-/)	12c\L 12e-	.	.	.	.	.	.	>
.	.	12c\ 12e-	.	.	.	.	.	.	.
16AAA-X/L 16AA-X	.	.	.	8dd-X\)	.	.	mon	-te	.
.	.	12c\J 12e-	.	.	.	.	.	.	.
16GGG-/JJ) 16GG-	.	.	.	.	.	.	.	.	]
*	*	*	*	*v	*v	*	*	*	*
=12	=12	=12	=12	=12	=12	=12	=12	=12
!	!	!	!	!	!	!	!	!LO:DY:a
12AAAn/L 12AAn	(4.ee-X^/	12cn\L 12e-X 12an	mf	4.ccn\	-nę	coeur	ich,	<
12C/ 12E-X 12An	.	12c\ 12e- 12a	.	.	.	.	.	.
12C/J 12E- 12A	.	12c\J 12e- 12a	.	.	.	.	.	.
12C\L 12E- 12A	.	12c\L 12e- 12a	.	.	.	.	.	.
12C\ 12E- 12A	.	12c\ 12e- 12a	.	.	.	.	.	.
.	8dd-X/	.	.	8r	.	.	.	.
12C\J 12E- 12B-X	.	12c\J 12e- 12b-X	.	.	.	.	.	.
(4EEEn~/ 4EEn	4cn/ 4ccn	12d#X\L 12f#X 12an	.	4.ff#X^\	szu-	en	su-	.
.	.	12d#\ 12f# 12a	.	.	.	.	.	.
.	.	12d#\J 12f# 12a	.	.	.	.	.	.
8DDD#X/L 8DD#X	4Bn/) 4bn	12d#\L 12f# 12a	.	.	.	.	.	.
.	.	12d#\ 12f# 12a	.	.	.	.	.	.
16EEE/L 16EE	.	.	.	8ffn\	-kam	de-	-che	[
.	.	12d#\J 12f# 12a	.	.	.	.	.	.
16DDD#/JJ) 16DD#	.	.	.	.	.	.	.	.
=13	=13	=13	=13	=13	=13	=13	=13	=13
*^	*	*	*	*^	*	*	*	*
!	!	!	!	!	!	!	!	!	!	!LO:DY:a
12r	2DDDn\ 2DDn	(4.gn^/ 4.ggn	12b-X\L 12cc#X 12een	f	[2een^\	2.ryy	jej!	-tres-	sie,	<
(12C#X/L 12Gn 12B-X 12c#X	.	.	12b-\ 12cc# 12ee	.	.	.	.	.	.	.
12C#/J 12G 12B- 12c#	.	.	12b-\J 12cc# 12ee	.	.	.	.	.	.	.
12C#/L 12G 12B- 12c#	.	.	12b-\L 12cc# 12ee	.	.	.	.	.	.	.
12C#/ 12G 12B- 12c#	.	.	12b-\ 12cc# 12ee	.	.	.	.	.	.	.
.	.	8f#X/ 8ff#X	.	.	.	.	.	.	.	.
12C#/J) 12G 12B- 12c#	.	.	12b-\J 12cc# 12ee	.	.	.	.	.	.	.
12r	[4DDD-X\ [4DD-X	4fn/ 4ffn	12gn\L 12b-X 12dd-X	.	8ee\]	.	.	-se	.	.
(12Gn/L 12B-X 12d-X	.	.	12g\ 12b- 12dd-	.	.	.	.	.	.	.
.	.	.	.	.	8r	.	.	.	.	[
12G/J 12B- 12d-	.	.	12g\J 12b- 12dd-	.	.	.	.	.	.	.
8G/) 8B- 8d-	8DDD-\L] 8DD-]	4e/) 4ee	12g\L 12b- 12dd-	.	4r	8ryy	.	.	.	.
.	.	.	12g\ 12b- 12dd-	.	.	.	.	.	.	.
8r	16DDDn\L 16DDn	.	.	.	.	8ee\	.	Ne	.	.
.	.	.	12g\J 12b- 12dd-	.	.	.	.	.	.	.
.	16DDD-X\JJ 16DD-X	.	.	.	.	.	.	.	.	.
*	*	*	*	*	*v	*v	*	*	*	*
=14	=14	=14	=14	=14	=14	=14	=14	=14	=14
!	!	!LO:TX:b:t=con passione	!	!	!LO:TX:a:t=espr.	!	!	!	!LO:DY:a
12r	4CCC^\ 4CC	(4.a-X^/ 4.ccn 4.ffn 4.aa-X	12r	ff	4.aa-X^\	Nie	la	fin-	ff
!	!	!LO:TX:a:t=(pesante)	!	!	!	!	!	!	!
12AA-X^/L 12A-X	.	.	12a-^\L	.	.	.	.	.	.
[12AA-^/J [12A-	.	.	[12a-^\J	.	.	.	.	.	.
12AA-/L] 12A-]	4DDD-X^\ 4DD-X	.	12a-\L]	.	.	.	.	.	.
12AA-^/ 12A-	.	.	12a-^\	.	.	.	.	.	.
.	.	8gn~/ 8ee-X 8ggn	.	.	8gg\	od-	re-	-de	.
12A-^/J	.	.	[12f-X^\J	.	.	.	.	.	.
12A-/L	4FFF^\ 4FFn	4fn~/ 4a- 4dd-X 4ff	12f-\L]	.	4ff\	-naj-	-trou-	sie	.
12AA-^/ 12A-	.	.	12a-^\	.	.	.	.	.	.
12AA-^/J [12A-	.	.	[12a-^\J	.	.	.	.	.	.
!	!	!LO:TX:b:t=poco rit.	!	!	!	!	!	!	!
12A-/L]	4AAA-X^\ 4AA-	4e-X^/) 4cc-X 4ee-	12a-\L]	.	4ee-X\	-dę	-ve	nicht	.
12AA-^/ 12A-	.	.	12a-^\	.	.	.	.	.	.
12AA-^/J 12A-	.	.	12a-^\J	.	.	.	.	.	.
*v	*v	*	*	*	*	*	*	*	*
*	*v	*v	*	*	*	*	*	*
=15	=15	=15	=15	=15	=15	=15	=15
*M2/4	*M2/4	*	*M2/4	*	*	*	*
*^	*^	*	*	*	*	*	*
!	!	!	!	!	!	!	!	!	!LO:DY:a
!	!	!LO:TX:b:t=ten.	!	!	!	!	!	!	!LO:DY:a
12AA-X/L	2DDn^\ 2BB-X 2Dn	2B-X^/ 2fn 2a-X	12A-X\L	sf	[2a-X/	już!	plus	mehr!	sf > ]]
12AA-/	.	.	12A-\	.	.	.	.	.	.
[12AA-/J	.	.	[12A-\J	.	.	.	.	.	.
12AA-/L]	.	.	12A-\L]	.	.	.	.	.	.
12AA-/	.	.	12A-\	.	.	.	.	.	.
[12AA-/J	.	.	[12A-\J	.	.	.	.	.	.
*v	*v	*	*	*	*	*	*	*	*
*	*v	*v	*	*	*	*	*	*
=16	=16	=16	=16	=16	=16	=16	=16
*M4/4	*M4/4	*	*M4/4	*	*	*	*
*^	*^	*	*	*	*	*	*
12AA-/L]	(4CCC-X\ 4CC-X	(4.f-X~/ 4.a-X	12A-\L]	p	4a-/]	.	.	.	.
12AA-X/	.	.	12A-X\	.	.	.	.	.	.
12AA-/J	.	.	[12A-\J	.	.	.	.	.	.
12AA-/L	4CCCn\ 4CCn	.	12A-\L]	.	4r	.	.	.	.
12AA-/	.	.	12A-\	.	.	.	.	.	.
.	.	8e-X/ 8g-X	.	.	.	.	.	.	.
[12AA-/J	.	.	[12A-\J	.	.	.	.	.	.
12AA-/L]	4DDD-X\ 4DD-X	4Fn/ 4d-X 4fn	12A-\L]	.	2r	.	.	.	.
12AA-/	.	.	12A-\	.	.	.	.	.	.
[12AA-/J	.	.	12A-\J	.	.	.	.	.	.
!LO:TX:b:t=ten.	!	!LO:TX:a:t=riten.	!	!	!	!	!	!	!
12AA-/L]	4DD-\) 4D-X	4F-X~/) 4d-X 4f-X	12Gn\L	.	.	.	.	.	.
12AA-/	.	.	12A-\	.	.	.	.	.	.
12AA-/J	.	.	[12A-\J	.	.	.	.	.	.
=17	=17	=17	=17	=17	=17	=17	=17	=17	=17
!LO:TX:b:t=ten.	!	!LO:TX:a:t=ten.	!	!LO:DY:a	!	!	!	!	!
12r	2.AAA-X\ 2.AA-X	2.E-X~/ 2.cn 2.e-X	(12A-~\L]	pp pp	1r;	.	.	.	.
12AA-/L	.	.	12A-X~\	.	.	.	.	.	.
!	!	!LO:TX:a:t=perdendosi	!	!	!	!	!	!	!
[12AA-/J	.	.	[12A-~\J	.	.	.	.	.	.
12AA-/L]	.	.	12A-~\L]	.	.	.	.	.	.
12AA-/	.	.	12A-~\	.	.	.	.	.	.
!LO:TX:a:t=rallent.	!	!	!	!	!	!	!	!	!
[12AA-/J	.	.	[12A-~\J	.	.	.	.	.	.
8AA-/L]	.	.	8A-~\L]	.	.	.	.	.	.
[8AA-/J	.	.	[8A-~\J	.	.	.	.	.	.
8AA-/L]	4rGG;	4r;	8A-~\L]	ppp	.	.	.	.	.
8AA-/J	.	.	8A-~\J)	.	.	.	.	.	.
*v	*v	*	*	*	*	*	*	*	*
*	*v	*v	*	*	*	*	*	*
==	==	==	==	==	==	==	==
*-	*-	*-	*-	*-	*-	*-	*-
!!!system-decoration: s1[(s2,s3)]
!!!RDF**kern: > = above
!!!RDF**kern: < = below
!!!ENC: z tego co wiem to Gręziak
!!!END:
!!!ENC: Leszek Kubiak
!!!END: 2023-
